X: 20681
M: 2/4
L: 1/16
K: G
|:\
g2(3(ded) ^c2d2 | b2a2 c'4 | c'2(3(aba) d2f2 | g2g2g2z2 :|
d2(3(dHed) B2d2 | g2 "^>"f4 e2 | d2(3(ded) e2d2 | d2 "^>"B4 d2 |\
b2(3(bc'b) a2g2 | g2 "^>"f4 e2 | d2 "^>"c4 A2 | BABc d2e2 |
d2(3(ded) B2d2 | g2 "^>"f4 e2 | d2(3(ded) e2d2 | d2 "^>"B4 d2 |\
b2(3(bc'b) a2g2 | g2 "^>"f4 e2 | d2 "^>"c4 A2 | GFGA "^D.C."G4 |]
|: G2 |\
c2G2 c2(3(efe) | g2a2 .g4 | f2G2 B2(3(ded) | c2e2 .G4 |\
c2G2 c2(3(efe) | g2a2 g2(3(gag) | f2G2 B2(3(ded) | c2e2c2"^D.C."z2 :|


